SVG_Azure_All/Function App API Definition.svg

<?xml version="1.0" encoding="UTF-8" standalone="no"?>
<!-- Generated by Microsoft Visio, SVG Export Function App API Definition.svg Page-1 -->

<svg
   xmlns:dc="http://purl.org/dc/elements/1.1/"
   xmlns:cc="http://creativecommons.org/ns#"
   xmlns:rdf="http://www.w3.org/1999/02/22-rdf-syntax-ns#"
   xmlns:svg="http://www.w3.org/2000/svg"
   xmlns="http://www.w3.org/2000/svg"
   xmlns:sodipodi="http://sodipodi.sourceforge.net/DTD/sodipodi-0.dtd"
   xmlns:inkscape="http://www.inkscape.org/namespaces/inkscape"
   width="0.62985766in"
   height="0.78737205in"
   viewBox="0 0 45.349495 56.691098"
   xml:space="preserve"
   class="st5"
   version="1.1"
   id="svg57"
   sodipodi:docname="Function App API Definition.svg"
   style="font-size:12px;overflow:visible;color-interpolation-filters:sRGB;fill:none;fill-rule:evenodd;stroke-linecap:square;stroke-miterlimit:3"
   inkscape:version="0.92.5 (2060ec1f9f, 2020-04-08)"><metadata
   id="metadata61"><rdf:RDF><cc:Work
       rdf:about=""><dc:format>image/svg+xml</dc:format><dc:type
         rdf:resource="http://purl.org/dc/dcmitype/StillImage" /></cc:Work></rdf:RDF></metadata><sodipodi:namedview
   pagecolor="#ffffff"
   bordercolor="#666666"
   borderopacity="1"
   objecttolerance="10"
   gridtolerance="10"
   guidetolerance="10"
   inkscape:pageopacity="0"
   inkscape:pageshadow="2"
   inkscape:window-width="640"
   inkscape:window-height="480"
   id="namedview59"
   showgrid="false"
   inkscape:zoom="1.4193119"
   inkscape:cx="30.235832"
   inkscape:cy="37.786193"
   inkscape:window-x="0"
   inkscape:window-y="0"
   inkscape:window-maximized="0"
   inkscape:current-layer="svg57" />
	<style
   type="text/css"
   id="style2">
	<![CDATA[
		.st1 {fill:#32bedd;stroke:none;stroke-linecap:butt;stroke-width:34}
		.st2 {fill:url(#grad0-8);stroke:none;stroke-linecap:butt;stroke-width:34}
		.st3 {fill:url(#grad0-18)}
		.st4 {stroke:none;stroke-linecap:butt;stroke-width:34}
		.st5 {fill:none;fill-rule:evenodd;font-size:12px;overflow:visible;stroke-linecap:square;stroke-miterlimit:3}
	]]>
	</style>

	<defs
   id="Patterns_And_Gradients">
		<linearGradient
   id="grad0-8"
   x1="-1.0776082e-06"
   y1="116.49409"
   x2="6.9696505"
   y2="116.49409"
   gradientTransform="scale(0.99000675,1.0100941)"
   gradientUnits="userSpaceOnUse">
			<stop
   offset="0"
   stop-color="#c69aeb"
   stop-opacity="1"
   id="stop4" />
			<stop
   offset="1"
   stop-color="#6f4bb2"
   stop-opacity="1"
   id="stop6" />
		</linearGradient>
		<linearGradient
   id="grad0-18"
   x1="-1.6746838e-08"
   y1="60.837596"
   x2="50.703959"
   y2="60.837596"
   gradientTransform="scale(0.89440747,1.1180586)"
   gradientUnits="userSpaceOnUse">
			<stop
   offset="0"
   stop-color="#50e6ff"
   stop-opacity="1"
   id="stop9" />
			<stop
   offset="1"
   stop-color="#32bedd"
   stop-opacity="1"
   id="stop11" />
		</linearGradient>
	</defs>
	<g
   id="g55"
   transform="translate(-34.000633,-34.0032)">
		<title
   id="title15">Page-1</title>
		<g
   id="group4463-1"
   transform="translate(34,-34.0157)">
			<title
   id="title17">Function App API Definition</title>
			<g
   id="group4464-2">
				<title
   id="title19">Sheet.4464</title>
				<g
   id="shape4465-3"
   transform="translate(10.0119,-30.6811)">
					<title
   id="title21">Sheet.4465</title>
					<path
   d="M 9.34,117.57 H 3.48 A 3.47408,3.54646 0 0 1 0,114.03 V 98.7 h 3.24 v 15.33 a 0.2314,0.23622 -180 0 0 0.2314,0.23622 L 9.33,114.26 Z M 22.17,98.7 v 15.33 a 0.2314,0.23622 0 0 1 -0.243741,0.23622 L 19.27,114.26 v -0.06 a 8.66977,8.85039 -180 0 0 -8.55,-7.18 1.4165721,1.4460771 -180 1 0 -0.35,2.87 1.67533,1.71024 -180 0 0 0.35,0 5.86212,5.98425 0 0 1 0,11.94 1.4165689,1.4460772 -180 0 0 -0.35,2.87 1.34212,1.37008 -180 0 0 0.35,0 8.65743,8.8378 -180 0 0 8.48,-7.13 h 2.72 a 3.47408,3.54646 -180 0 0 3.48,-3.54 V 98.7 Z"
   class="st1"
   id="path23"
   inkscape:connector-curvature="0"
   style="fill:#32bedd;stroke:none;stroke-width:34;stroke-linecap:butt" />
				</g>
				<g
   id="shape4466-5"
   transform="translate(15.9635,-36.0189)">
					<title
   id="title26">Sheet.4466</title>
					<path
   d="m 0,121.23 a 3.40628,3.47725 -180 0 0 3.41,3.48 h 0.08 a 3.40628,3.47725 -180 0 0 3.41,-3.48 v -0.09 A 3.40628,3.47725 -180 0 0 3.49,117.67 H 3.41 A 3.40628,3.47725 -180 0 0 0,121.14 Z"
   class="st2"
   id="path28"
   inkscape:connector-curvature="0"
   style="fill:url(#grad0-8);stroke:none;stroke-width:34;stroke-linecap:butt" />
				</g>
				<g
   id="shape4467-9"
   transform="translate(10.774,-20.5008)">
					<title
   id="title31">Sheet.4467</title>
					<path
   d="m 0,123.23 a 1.45014,1.48035 -180 0 0 1.45,1.48 h 21.17 a 1.45014,1.48035 -180 0 0 1.45,-1.48 v -0.34 a 1.45014,1.48035 -180 0 0 -1.45,-1.48 H 1.45 A 1.45014,1.48035 -180 0 0 0,122.89 Z"
   class="st1"
   id="path33"
   inkscape:connector-curvature="0"
   style="fill:#32bedd;stroke:none;stroke-width:34;stroke-linecap:butt" />
				</g>
				<g
   id="shape4468-11"
   transform="translate(10.774,-14.5953)">
					<title
   id="title36">Sheet.4468</title>
					<path
   d="m 0,123.23 a 1.45014,1.48035 -180 0 0 1.45,1.48 h 21.17 a 1.45014,1.48035 -180 0 0 1.45,-1.48 v -0.34 a 1.45014,1.48035 -180 0 0 -1.45,-1.48 H 1.45 A 1.45014,1.48035 -180 0 0 0,122.89 Z"
   class="st1"
   id="path38"
   inkscape:connector-curvature="0"
   style="fill:#32bedd;stroke:none;stroke-width:34;stroke-linecap:butt" />
				</g>
				<g
   id="shape4469-13"
   transform="translate(10.774,-8.68661)">
					<title
   id="title41">Sheet.4469</title>
					<path
   d="m 0,123.23 a 1.45014,1.48035 -180 0 0 1.45,1.48 h 12.27 a 1.45014,1.48035 -180 0 0 1.45,-1.48 v -0.34 a 1.45014,1.48035 -180 0 0 -1.45,-1.48 H 1.45 A 1.45014,1.48035 -180 0 0 0,122.89 Z"
   class="st1"
   id="path43"
   inkscape:connector-curvature="0"
   style="fill:#32bedd;stroke:none;stroke-width:34;stroke-linecap:butt" />
				</g>
				<g
   id="shape4470-15">
					<title
   id="title46">Sheet.4470</title>
					<path
   d="m 42.28,71.17 v 50.39 H 3.09 V 71.17 H 42.27 Z M 43.5,68.02 H 1.85 A 1.8512,1.88976 -180 0 0 0,69.91 v 52.91 a 1.8512,1.88976 -180 0 0 1.85,1.89 H 43.5 a 1.8512,1.88976 -180 0 0 1.85,-1.89 V 69.91 A 1.8512,1.88976 -180 0 0 43.5,68.02 Z"
   class="st3"
   id="path48"
   inkscape:connector-curvature="0"
   style="fill:url(#grad0-18)" />
					<path
   d="m 42.28,71.17 v 50.39 H 3.09 V 71.17 H 42.27 M 43.5,68.02 H 1.85 A 1.8512,1.88976 -180 0 0 0,69.91 v 52.91 a 1.8512,1.88976 -180 0 0 1.85,1.89 H 43.5 a 1.8512,1.88976 -180 0 0 1.85,-1.89 V 69.91 A 1.8512,1.88976 -180 0 0 43.5,68.02"
   class="st4"
   id="path50"
   inkscape:connector-curvature="0"
   style="stroke:none;stroke-width:34;stroke-linecap:butt" />
				</g>
			</g>
		</g>
	</g>
</svg>

<?xml version="1.0" encoding="UTF-8" standalone="no"?>
<!DOCTYPE svg PUBLIC "-//W3C//DTD SVG 1.1//EN" "http://www.w3.org/Graphics/SVG/1.1/DTD/svg11.dtd">
<!-- Generated by Microsoft Visio, SVG Export Function App API Definition.svg Page-1 -->
<svg xmlns="http://www.w3.org/2000/svg" xmlns:xlink="http://www.w3.org/1999/xlink" xmlns:ev="http://www.w3.org/2001/xml-events"
		width="1.57437in" height="1.73206in" viewBox="0 0 113.354 124.709" xml:space="preserve" color-interpolation-filters="sRGB"
		class="st5">
	<style type="text/css">
	<![CDATA[
		.st1 {fill:#32bedd;stroke:none;stroke-linecap:butt;stroke-width:34}
		.st2 {fill:url(#grad0-8);stroke:none;stroke-linecap:butt;stroke-width:34}
		.st3 {fill:url(#grad0-18)}
		.st4 {stroke:none;stroke-linecap:butt;stroke-width:34}
		.st5 {fill:none;fill-rule:evenodd;font-size:12px;overflow:visible;stroke-linecap:square;stroke-miterlimit:3}
	]]>
	</style>

	<defs id="Patterns_And_Gradients">
		<linearGradient id="grad0-8" x1="0" y1="0" x2="1" y2="0" gradientTransform="rotate(90 0.5 0.5)">
			<stop offset="0" stop-color="#c69aeb" stop-opacity="1"/>
			<stop offset="1" stop-color="#6f4bb2" stop-opacity="1"/>
		</linearGradient>
		<linearGradient id="grad0-18" x1="0" y1="0" x2="1" y2="0" gradientTransform="rotate(90 0.5 0.5)">
			<stop offset="0" stop-color="#50e6ff" stop-opacity="1"/>
			<stop offset="1" stop-color="#32bedd" stop-opacity="1"/>
		</linearGradient>
	</defs>
	<g>
		<title>Page-1</title>
		<g id="group4366-1" transform="translate(34,-34.0157)">
			<title>Function App API Definition</title>
			<g id="group4367-2">
				<title>Sheet.4367</title>
				<g id="shape4368-3" transform="translate(10.0119,-30.6811)">
					<title>Sheet.4368</title>
					<path d="M9.34 117.57 L3.48 117.57 A3.47408 3.54646 0 0 1 -0 114.03 L0 98.7 L3.24 98.7 L3.24 114.03 a0.2314 0.23622
								 -180 0 0 0.2314 0.23622 L9.33 114.26 L9.34 117.57 ZM22.17 98.7 L22.17 114.03 a0.2314 0.23622 0 0
								 1 -0.243741 0.23622 L19.27 114.26 L19.27 114.2 A8.66977 8.85039 -180 0 0 10.72 107.02 A1.41633 1.44583
								 -180 1 0 10.37 109.89 A1.67533 1.71024 -180 0 0 10.72 109.89 A5.86212 5.98425 0 0 1 10.72 121.83
								 A1.41617 1.44567 -180 0 0 10.37 124.7 A1.34212 1.37008 -180 0 0 10.72 124.7 A8.65743 8.8378 -180
								 0 0 19.2 117.57 L21.92 117.57 A3.47408 3.54646 -180 0 0 25.4 114.03 L25.4 98.7 L22.17 98.7 Z"
							class="st1"/>
				</g>
				<g id="shape4369-5" transform="translate(15.9635,-36.0189)">
					<title>Sheet.4369</title>
					<path d="M-0 121.23 A3.40628 3.47725 -180 0 0 3.41 124.71 L3.49 124.71 A3.40628 3.47725 -180 0 0 6.9 121.23 L6.9
								 121.14 A3.40628 3.47725 -180 0 0 3.49 117.67 L3.41 117.67 A3.40628 3.47725 -180 0 0 0 121.14 L0
								 121.23 Z" class="st2"/>
				</g>
				<g id="shape4370-9" transform="translate(10.774,-20.5008)">
					<title>Sheet.4370</title>
					<path d="M0 123.23 A1.45014 1.48035 -180 0 0 1.45 124.71 L22.62 124.71 A1.45014 1.48035 -180 0 0 24.07 123.23
								 L24.07 122.89 A1.45014 1.48035 -180 0 0 22.62 121.41 L1.45 121.41 A1.45014 1.48035 -180 0 0 0 122.89
								 L0 123.23 Z" class="st1"/>
				</g>
				<g id="shape4371-11" transform="translate(10.774,-14.5953)">
					<title>Sheet.4371</title>
					<path d="M0 123.23 A1.45014 1.48035 -180 0 0 1.45 124.71 L22.62 124.71 A1.45014 1.48035 -180 0 0 24.07 123.23
								 L24.07 122.89 A1.45014 1.48035 -180 0 0 22.62 121.41 L1.45 121.41 A1.45014 1.48035 -180 0 0 0 122.89
								 L0 123.23 Z" class="st1"/>
				</g>
				<g id="shape4372-13" transform="translate(10.774,-8.68661)">
					<title>Sheet.4372</title>
					<path d="M-0 123.23 A1.45014 1.48035 -180 0 0 1.45 124.71 L13.72 124.71 A1.45014 1.48035 -180 0 0 15.17 123.23
								 L15.17 122.89 A1.45014 1.48035 -180 0 0 13.72 121.41 L1.45 121.41 A1.45014 1.48035 -180 0 0 0 122.89
								 L0 123.23 Z" class="st1"/>
				</g>
				<g id="shape4373-15">
					<title>Sheet.4373</title>
					<path d="M42.28 71.17 L42.28 121.56 L3.09 121.56 L3.09 71.17 L42.27 71.17 L42.28 71.17 ZM43.5 68.02 L1.85 68.02
								 A1.8512 1.88976 -180 0 0 -0 69.91 L0 122.82 A1.8512 1.88976 -180 0 0 1.85 124.71 L43.5 124.71 A1.8512
								 1.88976 -180 0 0 45.35 122.82 L45.35 69.91 A1.8512 1.88976 -180 0 0 43.5 68.02 Z" class="st3"/>
					<path d="M42.28 71.17 L42.28 121.56 L3.09 121.56 L3.09 71.17 L42.27 71.17M43.5 68.02 L1.85 68.02 A1.8512 1.88976
								 -180 0 0 -0 69.91 L0 122.82 A1.8512 1.88976 -180 0 0 1.85 124.71 L43.5 124.71 A1.8512 1.88976 -180
								 0 0 45.35 122.82 L45.35 69.91 A1.8512 1.88976 -180 0 0 43.5 68.02" class="st4"/>
				</g>
			</g>
		</g>
	</g>
</svg>
